src/assets/Images/Misc/x.svg

<svg width="20" height="19" viewBox="0 0 20 19" fill="none" xmlns="http://www.w3.org/2000/svg">
<path d="M15.7508 0.969727H18.8175L12.1175 8.39754L20 18.5031H13.8283L8.995 12.3733L3.46333 18.5031H0.395L7.56167 10.558L0 0.970535H6.32833L10.6975 6.57332L15.7508 0.969727ZM14.675 16.7233H16.3742L5.405 2.65654H3.58167L14.675 16.7233Z" fill="#09283F"/>
</svg>

<svg width="20" height="19" fill="none" xmlns="http://www.w3.org/2000/svg"><path d="M15.75.97h3.067l-6.7 7.428L20 18.503h-6.172l-4.833-6.13-5.532 6.13H.395l7.167-7.945L0 .971h6.328l4.37 5.602L15.75.97Zm-1.075 15.753h1.7L5.404 2.657H3.582l11.093 14.066Z" fill="#09283F"/></svg>
